X:14
T:Point of Honor. Pn1801.14
Q:1/4=140
M:C
L:1/8
C:"454""p187"
W:Cross over one Cu: and turn .| cross over another Cu: and turn :|
W:lead up to the top and Cast of(f) :|. Allemande right & left at top :||:
B:Preston 24 for 1801
Z:Village Music Project, John Adams, 2017
K:G
GBdB dBge| dBdB cA A2|GBdB dBge|dBcA BG G2:|
|: bagf edcB|cedc dB B2|bagf edcB|cedc BG G2:|
|:GDB,D GDB,D|GBdB cA A2|A^GAB cedc|BAdc BG G2:|
